!!!COM: Beethoven
!!!OTL: 24 Variationen uber Venni Amore von V. Righini
!!!Variation: Variation 24 b
**function	**harm	**kern	**kern
*	*	*clefF4	*clefG2
*	*	*k[f#c#]	*k[f#c#]
*M2/4	*M2/4	*M2/4	*M2/4
*D:	*D:	*D:	*D:
=449	=449	=449	=449
2T	2I	8F#L	(8aL
.	.	8AJ	8dd'J)
.	.	8DL	(8ddL
.	.	8AJ	8ff#'J)
=450	=450	=450	=450
4T	4V7b	8C#L	(8ff#L
.	.	8AJ	8gg'J)
4T	4V7d	8GGL	(8ggL
.	.	8AJ	8ccc#'J)
=451	=451	=451	=451
2T	2Ib	8FF#L	(8ccc#L
.	.	8AJ	8ddd'J)
.	.	8DL	(8dddL
.	.	8AJ	8aa'J)
=452	=452	=452	=452
2T	2V7b	8C#L	(8aaL
.	.	8AJ	8gg'J)
.	.	8GL	(8ggL
.	.	8AJ	8ee'J)
=453	=453	=453	=453
2T	2I	8F#L	(8eeL
.	.	8AJ	8dd'J)
.	.	8DL	(8ddL
.	.	8AJ	8a'J)
=454	=454	=454	=454
2T	2V7	8C#L	(8aL
.	.	8AJ	8g'J)
.	.	8AAL 8G	(8gL
.	.	8AJ	8e'J)
=455	=455	=455	=455
4T	4I	8DL 8F#	(8eL
.	.	8AJ	8d'J)
4D	4V7	8AAL 8G	(8f#L
.	.	8AJ	8e'J)
=456	=456	=456	=456
2T	2I	8D' 8F#'L	4d'
.	.	8DDJ	.
.	.	8DDL	4r
.	.	8DDJ	.
*-	*-	*-	*-
